X: 1
T: The 51st Highland Division
R: march
M: 4/4
L: 1/8
K: A
e/d/c/B/ \
| A>A A>B cB ce | a>g fe f2 ef/g/ | a>g fe fa A>B | cf ec B2 e/d/c/B/ |
| A>A A>B cB ce | a>g fe f2 ef/g/ | a>g fe fa cB | c2 A2 A2 ce ||
|| f>e fa e2 ce | a>g fe f2 ef/g/ | a>g fe fa A>B | cf ec B2 e/d/c/B/ |
| A>A A>B cB ce | a>g fe f2 ef/g/ | a>g fe fa cB | c2 A2 A2 ce |]
